src/lib-components/assets/icons/copy.svg

<svg height="512pt" viewBox="-30 0 512 512" width="512pt" xmlns="http://www.w3.org/2000/svg">
<path d="m381.890625 21.214844 48.894531 48.894531h-48.894531zm-381.890625 490.785156v-432h201.890625v100.109375h100.109375v331.890625zm231.890625-410.785156 48.894531 48.894531h-48.894531zm100.109375 330.785156v-273.101562l-108.898438-108.898438h-74.101562v-50h202.890625v100.109375h100.109375v331.890625zm0 0"/>
</svg>

<svg xmlns="http://www.w3.org/2000/svg" height="682.7" viewBox="-30 0 512 512" width="682.7"><path d="M381.891 21.215l48.895 48.895h-48.895zM0 512V80h201.891v100.109H302V512zm231.891-410.785l48.895 48.895h-48.895zM332 432V158.898L223.102 50H149V0h202.891v100.109H452V432zm0 0"/></svg>
